X:1
T:Allons, allons gay
T:Adriaan Willaert
T:Source : La fleur des chansons à 3---Louvain---P.Phalèse---1574. Editor : André Vierendeels (21/09/18) Notes : Original clefs : G2, C3, C4 Original note values have been halved Editorial accidentals above the staff 
T:Allons, allons gay
T:©
T:©
T:©
T:©
T:©
T:©
C:Adriaan Willaert
Z:©
%%score [ 1 [ 2 3 ] ]
L:1/8
Q:1/4=120
M:2/2
K:F
V:1 treble nm="Soprano" snm="S"
V:2 treble-8 nm="Tenor 1" snm="T 1"
V:3 treble-8 nm="Tenor 2" snm="T 2"
V:1
 z4 d3 d | c2 d2 B4 | A2 G2 c4 | B3 A G2 F2 | d3 d c2 d2 | B4 A2 G2 | c4 B2 AG | FG A3 G G2- | %8
w: Al- lons,|al- lons gay,|gay- e- ment|ma- mi- gno- ne,|al- lons, al- lons|gay, gay- e-|ment vous _ _|_ _ _ _ _|
"^#" G2 F2 G4- | G4 z4 | z8 | B2 BB c2 c2 | B2 A2 GABG | AB c3 B B2 | A2 G4 F2 | G2 B4 AG | A4 z4 | %17
w: * et moy,|_||mon pè- re a fait|fai- re'un chas- * * *||teau, un chas-|teau, un chas- *|teau,|
 d2 dd d2 e2 | c2 d2 B2 AG | c2 B4 A2 | G4 F4 | F3 G A2 A2 | D2 d3 c B2 | A2 G4 F2 | G8 | %25
w: le Roy n'en a point|de si beau, gay- e-|ment, ma mi-|gno- ne,|al- lons, al- lons|gay, gay- e- ment|vous _ et|moy,|
 z2 G2 GG F2 | E2 D3 CDE | F2 G4 F2 | G4 d2 dd | c2 B2 A3 B | c2 d4 cB | A2 G2 A4 | z4 d2 dd | %33
w: d'or et d'ar- gent|sont les _ _ _|_ _ cre-|neaux, d'or et d'ar-|gent sont les _|_ cre- * *|* * neaux,|il est pe-|
 d2 e2 c2 d2 | B2 AG c2 BA | G2 F2 FGAA | D2 FG A G2 F | G4 d2 dd | d2 e2 c2 d2 | B2 AG c2 BA | %40
w: tit mais il est|beau, gay- e- ment ma mi-|gno- ne, al- lons, al- nons|gay, gay- e- ment vous et|moy, le Roy n'en|a point de si|beau, gay- e- ment ma mi-|
 G2 F2 FGAA | D2 FG A G2 F | G8 |] %43
w: gno- ne, al- lons, al- lons|gay, gay- e ment vous et|moy;|
V:2
 z4 d3 d | e2 f2 g4 | z2 e3 d c2 | d3 d ec f2- | f2 ed e2 d2 | g3 g f2 g2 | e4 d2 c2 | d2 c4 B2 | %8
w: Al- lons,|al- lons gay,|gay- e- ment|ma mi- gno- * *|* * * * ne,|al- lons, al- lons|gay, gay- e-|ment vous _|
 A4 G4 | z4 f2 ff | g2 g2 f2 e2 | de fd ef g2- | g2 f2 g4 | z4 B2 BB | c2 c2 B2 A2 | G2 g4 fe | %16
w: et moy,|mon pè- re|a fait fai- re'un|chas- * teau, _ un _ chas-|* * teau,|mon pè- re|a fait fai- re'un|chas- * * *|
 f4 g4 | z2 f2 ff g2 | a2 f2 g2 e2 | ed g4 f2- | f2 e2 d2 c2 | d3 d c2 d2 | B4 A2 G2 | c4 B2 A2 | %24
w: * teau,|d'or et d'ar- gent|sont les cre- neaux,|gay- e- ment ma-|* mi- gno- ne,|al- lons, al- lons|gay, gay- e-|ment vous et|
 G4 B2 BB | c2 c2 B2 A2 | G4 B2 BB | c2 c2 B2 A2 | G2 g2 gg f2 | e2 d3 efg | a2 b4 ag | f2 g4 f2 | %32
w: moy, d'or et d'ar-|gent sont les cre-|neaux, d'or et d'ar-|gent sont les cre-|naux, d'or et d'ar- gent|sont les _ _ _|_ _ _ _|* cre- *|
 g2 d2 dd d2 | f2 g2 e2 d2 | gfe d2 cdf- | fe f2 ddcd | B2 AG c2 BA | G2 d2 dd d2 | f2 g2 e2 d2 | %39
w: neaux, le Roy n'en a|point de si beau,|gay- e- ment ma mi- gno- *|* * ne, al- lons, al- lons|gay, gay- e- ment vous- et|moy, le Roy n'en a|point de si beau,|
 gfe d2 cdf- | fe f2 ddcd | B2 AG c2 BA | G8 |] %43
w: gay- e- ment ma mi- gno- *|* * ne, al- lons, al- lons|gay, gay- e- ment vous et|moy.|
V:3
 d6 G2 | c2 B2 G4 | c3 B A4 | G2 F2 E2 D2 | D3 D A2 B2 | G4 z2 C2- | CDEF G2 A2 | B2 F4 G2 | %8
w: Al- lons,|al- lons gay,|gay- e- ment|ma mi- gno- ne,|al- lons, al- lons|gay, gay-|* * * * * e-|ment vous et|
 D4 z4 | c2 cc d2 d2 | c2 B2 AB cA | Bc d4 c2 | d4 z4 | F2 FF G2 G2 | F2 E2 D4 | z4 z2 d2 | %16
w: moy,|mon pè- re a fait|fai- re'un chas- * teau, _|un _ _ chas-|teau,|il est pe- tit mais|il est beau,|il|
 dd d2 e2 c2 | d2 B2 z4 | z2 B2 G2 c2- |"^#" cB G2 B2 F2 | c4 F4 | B3 B F2 F2 | G2 G2 F2 G2 | %23
w: est pe- tit mais il|est beau,|gay- e- ment|_ ma mi- gno- *|* ne,|al- lons, al- lons|gay, gay- e- ment,|
 C2 E2 D4 | z4 G2 GG | F2 E2 E2 F2 | C2 z2 G2 GG | F2 E2 D2 D2 | G3 A BcdB | c2 G2 d4 | z4 d2 dd | %31
w: vous et moy|d'or et d'ar-|gent sont les cre-|neaux, d'or et d'ar-|gent sont les cre-||* * neaux,|le Roy n'en|
 d2 e2 c2 d2 | G4 B2 BB |"^#" B2 G2 A2 B2 | G2 cB A2 GF | c2 F2 BBAF | G2 DE FC D2 | G4 B2 BB | %38
w: a point de si|beau, le Roy n'en|a point de si|beau, gay- e- ment ma mi-|gno- ne, al- lons, al- lons|gay gay- e- ment, vous et|moy, le Roy n'en|
"^#" B2 G2 A2 B2 | G2 cB A2 GF | c2 F2 BBAF | G2 DE FC D2 | G8 |] %43
w: a point de si|beau, gay- e- ment ma mi-|gno- ne, al- lons, al- lons|gay, gay- e- ment vous et|moy.|

